X:1
T:Let Him Come In
T:Harvey Robert Christie
T:Let Him Come In
T:Public Domain
T:Public Domain
C:Harvey Robert Christie
Z:Public Domain
%%score ( 1 2 ) ( 3 4 )
L:1/8
M:3/4
K:Ab
V:1 treble 
V:2 treble 
V:3 bass 
V:4 bass 
V:1
 [CE]>[CE] | [CA]3 [CE] [EA]>[EB] | [Ec]4 | [Ec]>[Ed] | [Ee]3 A [Gd]>[Ac] | [GB]4 E>E | %6
w: 1.~To thy|barred and bolt- ed|door,|Gent- ly|as a woo- ing|Je- sus comes|
w: 2.~Haste and|o- pen wide the|door,|Ban- ish|ev- ’ry thought of|Why re- fuse|
w: 3.~He a|roy- al feast will|spread,|He will|bring a bound- less|Thou shalt taste|
w: 4.~He is|knock- ing, wait- ing|still;|Why in|mad- ness yet de-|Why re- fuse|
 [CA]3 [CE] [EA]>[EB] | [Ec]4 | [Ee]>[Af] | [Ae]3 A [Ac]>[EB] | [EA]4 ||"^Refrain" [Ac]>[Bd] | %12
w: be- fore, Plead- ing|in|His ten-|der love. * *|||
w: Him more; Quick- ly|rise|and let|Him in. Let Him|let|Him in;|
w: ing Bread,” And be|blest|for- ev-|er- more. * *|||
w: cy till He ag-|grieved|shall turn|a- way? * *|||
 [ce]6 [df]>[df] | [ce]6 | [Ac]>[Ae] | [Af]2 [Ae]2 [Gd]2 [Ac]2 | [GB]6 | [Ac]>[Bd] | %18
w: ||||||
w: Sin- ner, why|not|make Him|room? Let Him in;|let|Him in;|
w: ||||||
w: ||||||
 [ce]6 [df]>[df] | [ce]6 [EA]>[FB] | [Ec] [Ec]3 [DB]3 [CA] | [CA]6 |] %22
w: ||||
w: Lest He nev-|er more may|come. * * *||
w: ||||
w: ||||
V:2
 x2 | x6 | x4 | x2 | x3 A x2 | x4 E>E | x6 | x4 | x2 | x3 A x2 | x4 || x2 | x8 | x6 | x2 | x8 | %16
w: ||||dove,|as oft|||||||||||
w: ||||sin;|and grieve||||in;|||||||
w: ||||store;|“The Liv-|||||||||||
w: ||||lay?|His mer-|||||||||||
 x6 | x2 | x8 | x8 | x8 | x6 |] %22
w: ||||||
w: ||||||
w: ||||||
w: ||||||
V:3
 [A,,A,]>[A,,A,] | [A,,A,]3 [A,,A,] [C,A,]>[E,G,] | A,4 | A,>[A,B,] | [A,C]3 [CE] [B,E]>[A,E] | %5
w: ~ ~|~ ~ ~ ~|~|~ ~|~ ~ ~ ~|
 [E,E]4 [E,G,]>[E,G,] | [A,,A,]3 [A,,A,] [C,A,]>[E,G,] | A,4 | [A,C]>[D,D] | %9
w: ~ ~ ~|~ ~ ~ ~|~|~ ~|
 [E,C]3 [E,C] [E,E]>[E,D] | [A,,C]4 || z2 | z2 A,>A, A,2 z2 | z2 A,>A, A,2 | [A,E]>[CE] | %15
w: ~ ~ Let Him|in;||let Him in;|~ ~ ~|in; let|
 D2 [CE]2 [B,E]2 [A,E]2 | [E,E]6 | z2 | z2 A,>A, A,2 z2 | z2 A,>A, A,2 [C,A,]>[D,A,] | %20
w: Him in; * *|||||
 [E,A,] [E,A,]3 E,3 [A,,E,] | [A,,E,]6 |] %22
w: ||
V:4
 x2 | x6 | A,4 | A,3/2 x/ | x6 | x6 | x6 | A,4 | x2 | x6 | x4 || x2 | x2 A,>A, A,2 x2 | %13
w: ||~|~||||~|||||~ ~ ~|
 x2 A,>A, A,2 | x2 | D2 x6 | x6 | x2 | x2 A,>A, A,2 x2 | x2 A,>A, A,2 x2 | x4 E,3 x | x6 |] %22
w: ~ Let Him|||||||||

